X:47
T: Die Brombeerpflueckerin
N: Q1147N
O: Mitteleuropa, Deutschland
N: Melodievergleich zu Q0147M, anderes Lied.
N: Vierte und siebte Zeile refrainartig.
R: ???
M: 4/4
L: 1/8
K: G
D2 | G2G2GFE2 | D2F2A2
c2 | B2B2A4 | G4z2
GA | B2B2B2B2 | A2d2c4 |
A4A4 | B2c2d2
c2 | B2B2A4 | G4z2
GA | B2B2B2B2 | A2d2c4 |
A4A4 | B2c2d2
c2 | B2B2A4 | G4z2

@@@ Tune index: 1650
